X: 1
T: The Cage
C: James Hill
M: 4/4
L: 1/8
S: John Baty ms (1840-1860)
K: Amaj
AB|cBdc BAcB|A2E2 E2FG|AGBA cBdc|BcGA B2AB|
cBdc BAcB|A2E2 E2FG|AGBA FdBG|B2A2 A2:|
|:eg|aAce agba|gfgf e2gf|eEGB e^dfe|=dced c2AB|
cBdc BAcB|AGBA GFED|CEAE FdBG|B2A2 A2:|
